_includes/icons/ios-export.svg

<svg fill="#666" height="50" viewBox="0 0 50 50" width="50" xmlns="http://www.w3.org/2000/svg"><path d="m.78125-.03125c-.480469.109375-.8203125.539063-.8125 1.03125v48c.0039062.566406.464844 1.027344 1.03125 1.03125h30c.566406-.003906 1.027344-.464844 1.03125-1.03125v-10h-2.0625v8.96875h-27.9375v-45.9375h27.9375v8.96875h2.0625v-10c-.003906-.566406-.464844-1.0273438-1.03125-1.03125h-30c-.074219-.0078125-.144531-.0078125-.21875 0zm38.125 15.125c-.375.066406-.675781.339844-.78125.703125-.105469.367188.003906.757813.28125 1.015625l7.15625 7.1875h-29.5625c-.03125 0-.0625 0-.09375 0-.550781.027344-.980469.496094-.953125 1.046875s.496094.980469 1.046875.953125h29.5625l-7.15625 7.1875c-.296875.242188-.433594.628906-.347656 1.003906.085937.371094.378906.664063.75.75.375.085938.761719-.050781 1.003906-.347656l8.90625-8.875.6875-.71875-.6875-.71875-8.90625-8.875c-.207031-.222656-.507812-.335937-.8125-.3125-.03125 0-.0625 0-.09375 0z"/></svg>

<svg xmlns="http://www.w3.org/2000/svg" viewBox="0 0 50 50" width="50" height="50" fill="#666"><path d="M 0.78125 -0.03125 C 0.300781 0.078125 -0.0390625 0.507813 -0.03125 1 L -0.03125 49 C -0.0273438 49.566406 0.433594 50.027344 1 50.03125 L 31 50.03125 C 31.566406 50.027344 32.027344 49.566406 32.03125 49 L 32.03125 39 L 29.96875 39 L 29.96875 47.96875 L 2.03125 47.96875 L 2.03125 2.03125 L 29.96875 2.03125 L 29.96875 11 L 32.03125 11 L 32.03125 1 C 32.027344 0.433594 31.566406 -0.0273438 31 -0.03125 L 1 -0.03125 C 0.925781 -0.0390625 0.855469 -0.0390625 0.78125 -0.03125 Z M 38.90625 15.09375 C 38.53125 15.160156 38.230469 15.433594 38.125 15.796875 C 38.019531 16.164063 38.128906 16.554688 38.40625 16.8125 L 45.5625 24 L 16 24 C 15.96875 24 15.9375 24 15.90625 24 C 15.355469 24.027344 14.925781 24.496094 14.953125 25.046875 C 14.980469 25.597656 15.449219 26.027344 16 26 L 45.5625 26 L 38.40625 33.1875 C 38.109375 33.429688 37.972656 33.816406 38.058594 34.191406 C 38.144531 34.5625 38.4375 34.855469 38.808594 34.941406 C 39.183594 35.027344 39.570313 34.890625 39.8125 34.59375 L 48.71875 25.71875 L 49.40625 25 L 48.71875 24.28125 L 39.8125 15.40625 C 39.605469 15.183594 39.304688 15.070313 39 15.09375 C 38.96875 15.09375 38.9375 15.09375 38.90625 15.09375 Z"/></svg>
